public/assets/social-media/linkedin.svg

<svg viewBox="0 0 25 25" fill="none" xmlns="http://www.w3.org/2000/svg">
<g clip-path="url(#clip0_103_2)">
<path d="M3.125 6.25C1.40208 6.25 0 4.84792 0 3.125C0 1.40208 1.40208 0 3.125 0C4.84792 0 6.25 1.40208 6.25 3.125C6.25 4.84792 4.84792 6.25 3.125 6.25ZM3.125 1.04167C1.97604 1.04167 1.04167 1.97604 1.04167 3.125C1.04167 4.27396 1.97604 5.20833 3.125 5.20833C4.27396 5.20833 5.20833 4.27396 5.20833 3.125C5.20833 1.97604 4.27396 1.04167 3.125 1.04167Z" fill="black"/>
<path d="M5.72917 25H0.520833C0.233333 25 0 24.7667 0 24.4792V8.85417C0 8.56667 0.233333 8.33334 0.520833 8.33334H5.72917C6.01667 8.33334 6.25 8.56667 6.25 8.85417V24.4792C6.25 24.7677 6.01667 25 5.72917 25ZM1.04167 23.9583H5.20833V9.375H1.04167V23.9583Z" fill="black"/>
<path d="M24.4791 25H19.2708C18.9833 25 18.75 24.7667 18.75 24.4792V15.1042C18.75 13.9219 18.2573 13.0344 17.3969 12.6708C16.5083 12.2937 15.4239 12.525 14.5833 13.25V24.4792C14.5833 24.7667 14.35 25 14.0625 25H8.85415C8.56665 25 8.33331 24.7667 8.33331 24.4792V8.85416C8.33331 8.56666 8.56665 8.33333 8.85415 8.33333H14.0625C14.3052 8.33333 14.5094 8.5 14.5666 8.72396C16.2375 7.52187 19.0208 6.85312 21.2469 7.61562C22.9271 8.19166 24.9406 9.775 25 14.0562V24.4802C25 24.7677 24.7666 25 24.4791 25ZM19.7916 23.9583H23.9583V14.0625C23.9187 11.1615 22.8635 9.26979 20.9094 8.60104C18.4823 7.76979 15.4239 9.025 14.4687 10.2208C14.3302 10.3948 14.0969 10.4594 13.8896 10.3875C13.6812 10.3146 13.5416 10.1177 13.5416 9.89583V9.375H9.37498V23.9583H13.5416V13.0208C13.5416 12.8802 13.5989 12.7448 13.6989 12.6479C14.8635 11.5167 16.4771 11.1521 17.8021 11.7115C19.0666 12.2469 19.7916 13.4833 19.7906 15.1042V23.9583H19.7916Z" fill="black"/>
</g>
<defs>
<clipPath id="clip0_103_2">
<rect width="25" height="25" fill="white"/>
</clipPath>
</defs>
</svg>

<svg xmlns="http://www.w3.org/2000/svg" viewBox="0 0 25 25" fill="none" xmlns:v="https://vecta.io/nano"><g clip-path="url(#A)" fill="#000"><path d="M3.125 6.25A3.13 3.13 0 0 1 0 3.125 3.13 3.13 0 0 1 3.125 0 3.13 3.13 0 0 1 6.25 3.125 3.13 3.13 0 0 1 3.125 6.25zm0-5.208c-1.149 0-2.083.934-2.083 2.083s.934 2.083 2.083 2.083 2.083-.934 2.083-2.083-.934-2.083-2.083-2.083zM5.729 25H.521A.52.52 0 0 1 0 24.479V8.854a.52.52 0 0 1 .521-.521h5.208a.52.52 0 0 1 .521.521v15.625a.52.52 0 0 1-.521.521zm-4.687-1.042h4.167V9.375H1.042v14.583zM24.479 25h-5.208a.52.52 0 0 1-.521-.521v-9.375c0-1.182-.493-2.07-1.353-2.433-.889-.377-1.973-.146-2.814.579v11.229a.52.52 0 0 1-.521.521H8.854a.52.52 0 0 1-.521-.521V8.854a.52.52 0 0 1 .521-.521h5.208a.52.52 0 0 1 .504.391c1.671-1.202 4.454-1.871 6.68-1.108 1.68.576 3.694 2.159 3.753 6.441V24.48a.52.52 0 0 1-.521.52zm-4.687-1.042h4.167v-9.896c-.04-2.901-1.095-4.793-3.049-5.461-2.427-.831-5.486.424-6.441 1.62a.52.52 0 0 1-.927-.325v-.521H9.375v14.583h4.167V13.021a.52.52 0 0 1 .157-.373c1.165-1.131 2.778-1.496 4.103-.936 1.265.535 1.989 1.772 1.989 3.393v8.854h.001z"/></g><defs><clipPath id="A"><path fill="#fff" d="M0 0h25v25H0z"/></clipPath></defs></svg>
